X: 1c
T: The Newmarket Polka
R:polka
M:2/4
L:1/8
K:A
"A"E>E Ec|"D"BA FA|"A"E>E Ec|"D"BA AF|
"A"E>E Ec|"D"BA FA|"A"E2 e>c|1 BA AF:|2 BA A>B||
|:"A"ce B>c|"D"BA FA|"A"ce B>c|"D"BA AB|
"A"ce B>c|"D"BA FA|"A"E>E Ec|BA AB:|


